X:1620
T:Polska
T:En sup till...
S:efter Axel Sundström
S:efter fadren
O:Mölltorp, Västergötland
B:Svenska Låtar, Västergötland, nr 23
B: Jämför [[Notböcker/John Johanssons noter]] [[http://www.sormlandsmusikarkiv.se/noter/johansson_john/john_johansson.html|samling 2]] (sida 45, låt nr 32) från [[Platser/Södermanland]]
B: Jämför [[http://www.sormlandsmusikarkiv.se/noter/oa/626-671.pdf#andersson_anders-Gustaf|Sörmlands musikarkiv]] (pdf) efter [[Personer/Anders Gustaf Andersson]], Nora, nr 645 (med alternativ text och referenser till andra uppteckningar)
B: Jämför [[http://www.smus.se/earkiv/fmk/browselarge.php?lang=sw&katalogid=M+15a&bildnr=00023|SMUS - katalog M15a bild 23]] nr 65.
B: Jämför [[http://www.smus.se/earkiv/fmk/browselarge.php?lang=sw&katalogid=M+29&bildnr=00028|SMUS - katalog M29 bild 28]] nr 8 ur [[Notböcker/AP Roos notbok]]
B: Jämför [[http://www.smus.se/earkiv/fmk/browselarge.php?lang=sw&katalogid=M+51&bildnr=00006|SMUS - katalog M51 bild 6]] nr 5
B: Jämför [[http://www.smus.se/earkiv/fmk/browselarge.php?lang=sw&katalogid=MMD+66&bildnr=00101|SMUS - katalog MMD66 bild 101]] nr 74
B: Jämför [[http://www.smus.se/earkiv/fmk/browselarge.php?lang=sw&katalogid=M+31&bildnr=00009|SMUS - katalog M31 bild 9]] nr 22
B: Jämför [[http://www.smus.se/earkiv/fmk/browselarge.php?lang=sw&katalogid=Upprop+19&bildnr=00035|SMUS - katalog Upprop19 bild 35]] nr II
B: Jämför [[http://www.smus.se/earkiv/fmk/browselarge.php?lang=sw&katalogid=G%E4+2&bildnr=00051|SMUS - katalog Gä2 bild 51]] nr 8
B: Jämför [[http://www.smus.se/earkiv/fmk/browselarge.php?lang=sw&katalogid=Svldiv+2%3A68&bildnr=00003|Svldiv 2:68 bild 3]] nr 2
B: Jämför [[http://www.smus.se/earkiv/fmk/browselarge.php?lang=sw&katalogid=Vr+17&bildnr=00010|SMUS - katalog Vr17 bild 10]]
B: Jämför [[http://www.smus.se/earkiv/fmk/browselarge.php?lang=sw&katalogid=M+15a&bildnr=00023|SMUS - katalog M15a bild 23]] nr 65
B: Jämför [[http://www.smus.se/earkiv/fmk/browselarge.php?lang=sw&katalogid=MMD+65&bildnr=00025|SMUS - katalog MMD65 bild 25]] nr 45
B: Jämför [[http://www.smus.se/earkiv/fmk/browselarge.php?lang=sw&katalogid=M+30a&bildnr=00001|SMUS - katalog M30a bild 1]] nr 1
B: Jämför [[http://www.smus.se/earkiv/fmk/browselarge.php?lang=sw&katalogid=Ma+11&bildnr=00017|SMUS - katalog Ma11 bild 17]] nr 46
B: Jämför [[http://www.smus.se/earkiv/fmk/browselarge.php?lang=sw&katalogid=MMD+16&bildnr=00005|SMUS - katalog MMD16 bild 5]] nr 16
B: Jämför [[http://www.smus.se/earkiv/fmk/browselarge.php?lang=sw&katalogid=Ske+30&bildnr=00021|SMUS - katalog Ske30 bild 21]] efter [[Personer/Johan Jacob Bruun]]
B: Jämför [[http://www.smus.se/earkiv/fmk/browselarge.php?lang=sw&katalogid=M+22b&bildnr=00040|SMUS - katalog M22 bild 40]] nr 15
B: Jämför [[http://www.smus.se/earkiv/fmk/browselarge.php?lang=sw&katalogid=MMD+27&bildnr=00007|SMUS - katalog MMD27 bild 7]] nr 11 ur [[Notböcker/Johan Lundströms notbok]] (inte säkert att det finns något släktskap)
B: Jämför [[http://stefanlinden.se/L/slangpolska%20e%20Pehr%20Ericsson%20Helgaro%20Leffler%20nr4%20En%20sup%20till.pdf|Uppteckning efter Per Ericsson, Sörmland av K.P Leffler]] (pdf)
N:Upptecknad 1919 av Torsten Rantzén.
N:Melodien finnes i olika varianter från skilda landskap, bl.a. Värmland, Dalarna, Hälsingland, Närke och Skåne.
N:Se även [[Musik/2590|+]] och [[Musik/665|+]]
D:Inspelad av Äpplet i lomman på CDn Sandkorn från år 2000.
Z:Per Bergsten, 2009-09-01
R:Polska
M:3/4
L:1/8
K:Cm
c2 =B2 c2 | d>c =Bc d2 | e>g fe dc | =B/c/d/B/ G4 |
w: En sup till det be-hö-ver ja, får ja in-te det så mår ja in-te bra.
c2 =B2 c2 | d>c =Bc d2 | e>g fe dc | =B/c/d/B/ c4 :|
w: En, två, tre, fy-ra el-ler fem, får ja in-te det så går ja in-te hem.
K:C
|: g>e (e/c/)e/g/ (e/c/)e/g/ | g>f (d/B/)d/f/ (d/B/)d/f/ | ed/f/ fe dc | B/c/d/B/ G4 |
g>e (e/c/)e/g/ (e/c/)e/g/ |  g>f (d/B/)d/f/  (d/B/)d/f/ | ed/e/ fe dc | B/G/B/d/ c4 :|
(:musicend:)

En variant från Västmanland:

(:music:)
